X: 36517
T: Sergeant Early's Dream
R: reel
M: 4/4
K: Adorian
|:ag|"Am"eAAB cege|"G"dBGA B3c|"Am"AEAB cBcd|"Em"eaab c'bag|
"Am"eAAB cege|"G"dBGA B3c|"Am"AEAB cege|"G"dcBc "Am"A2:|
|:cd|"Am"eaag a2ab|c'2ba gedc|"G"BGBd gfga|"Em"bgag egdg|
"Am"eaag a2ab|c'2ba gedg|"Em"eB (3BcB GB (3BcB|"G"cABG "Am"A2:|

